boxicons/svg/regular/bx-film.svg

<svg xmlns="http://www.w3.org/2000/svg" width="24" height="24" viewBox="0 0 24 24"><path d="M19 3H5c-1.103 0-2 .897-2 2v14c0 1.103.897 2 2 2h14c1.103 0 2-.897 2-2V5c0-1.103-.897-2-2-2zM9 11V5h6v6H9zm6 2v6H9v-6h6zM5 5h2v2H5V5zm0 4h2v2H5V9zm0 4h2v2H5v-2zm0 4h2v2H5v-2zm14.002 2H17v-2h2.002v2zm-.001-4H17v-2h2.001v2zm0-4H17V9h2.001v2zM17 7V5h2v2h-2z"/></svg>

<svg xmlns="http://www.w3.org/2000/svg" width="24" height="24" viewBox="0 0 24 24"><path d="M19,3H5C3.897,3,3,3.897,3,5v2v2v2v2v2v2v2c0,1.103,0.897,2,2,2h14c1.103,0,2-0.897,2-2v-2v-2v-2v-2V9V7V5 C21,3.897,20.103,3,19,3z M9,11V5h6v6H9z M15,13v6H9v-6H15z M5,5h2v2H5V5z M5,9h2v2H5V9z M5,13h2v2H5V13z M5,17h2v2H5V17z M19.002,19H17v-2h2.002V19z M19.001,15H17v-2h2.001V15z M19.001,11H17V9h2.001V11z M17,7V5h2v2H17z"/></svg>
